source/images/star.svg

<svg width="20" height="20" viewBox="0 0 20 20" fill="none" xmlns="http://www.w3.org/2000/svg"><path d="M10 1l2.1 6.5H19l-5.6 4 2.2 6.5-5.6-4-5.6 4 2.2-6.5-5.6-4h6.9L10 1z" fill="#000"/></svg>

<svg width="20" height="20" viewBox="0 0 20 20" fill="none" xmlns="http://www.w3.org/2000/svg">
<path d="M10 1L12.1 7.5H19L13.4 11.5L15.6 18L10 14L4.4 18L6.6 11.5L1 7.5H7.9L10 1Z" fill="black"/>
</svg>
